!!!COM: Palestrina, Giovanni Perluigi da
!!!OPR: Fratres Ego Enim Accepi
!!!OTL: Kyrie
**kern	**kern	**kern	**kern	**kern	**kern	**kern	**kern
*Ibass	*Itenor	*Icalto	*Icant	*Ibass	*Itenor	*Icalto	*Icant
!Bassus	!Tenor	!Altus	!Cantus	!Bassus	!Tenor	!Altus	!Cantus
*clefF4	*clefGv2	*clefG2	*clefG2	*clefF4	*clefGv2	*clefG2	*clefG2
*k[b-]	*k[b-]	*k[b-]	*k[b-]	*k[b-]	*k[b-]	*k[b-]	*k[b-]
*G:dor	*G:dor	*G:dor	*G:dor	*G:dor	*G:dor	*G:dor	*G:dor
*M4/2	*M4/2	*M4/2	*M4/2	*M4/2	*M4/2	*M4/2	*M4/2
=1	=1	=1	=1	=1	=1	=1	=1
0r	0r	0r	0r	0r	0r	1.g	1r
.	.	.	.	.	.	.	[1dd
.	.	.	.	.	.	2g	.
=2	=2	=2	=2	=2	=2	=2	=2
0r	0r	0r	0r	0r	0r	1d	2dd]
.	.	.	.	.	.	.	2dd
.	.	.	.	.	.	2r	1g
.	.	.	.	.	.	[2g	.
=3	=3	=3	=3	=3	=3	=3	=3
0r	0r	0r	0r	0r	0r	2g]	2r
.	.	.	.	.	.	2f	1dd
.	.	.	.	.	.	2b-	.
.	.	.	.	.	.	2a	2cc
=4	=4	=4	=4	=4	=4	=4	=4
0r	0r	0r	0r	0r	0r	2f	2ff
.	.	.	.	.	.	2g	2ee
.	.	.	.	.	.	4a	2cc
.	.	.	.	.	.	4g	.
.	.	.	.	.	.	4f	[2dd
.	.	.	.	.	.	4e	.
=5	=5	=5	=5	=5	=5	=5	=5
0r	0r	0r	0r	1.G	1r	2.d	4dd]
.	.	.	.	.	.	.	4cc
.	.	.	.	.	.	.	4b-
.	.	.	.	.	.	4c	4a
.	.	.	.	.	[1d	4B-	2g
.	.	.	.	.	.	4G	.
.	.	.	.	2G	.	[2g	2b-
=6	=6	=6	=6	=6	=6	=6	=6
0r	0r	0r	0r	1D	2d]	2g]	1a
.	.	.	.	.	2d	2f#	.
.	.	.	.	2r	1G	2g	[1b-
.	.	.	.	[2G	.	[2d	.
=7	=7	=7	=7	=7	=7	=7	=7
0r	0r	0r	0r	2G]	2r	4d]	2b-]
.	.	.	.	.	.	4e	.
.	.	.	.	2F	1d	2f	4a
.	.	.	.	.	.	.	4g
.	.	.	.	2B-	.	2d	4f
.	.	.	.	.	.	.	4g
.	.	.	.	2A	2c	2e	[2a
=8	=8	=8	=8	=8	=8	=8	=8
0r	0r	0r	0r	2F	2f	2a	4a]
.	.	.	.	.	.	.	4f
.	.	.	.	2G	2e	2g	2b-
.	.	.	.	2A	2c	1f	2a
.	.	.	.	[2B-	[2d	.	2f
=9	=9	=9	=9	=9	=9	=9	=9
1.G	1r	0r	0r	2B-]	4d]	2g	2.b-
.	.	.	.	.	4c	.	.
.	.	.	.	2G	4B-	2.g	.
.	.	.	.	.	4A	.	4cc
.	[1d	.	.	2.B-	2G	.	1dd
.	.	.	.	.	.	4a	.
2G	.	.	.	.	[2g	2b-	.
.	.	.	.	4c	.	.	.
=10	=10	=10	=10	=10	=10	=10	=10
1D	2d]	0r	0r	2.d	4g]	1a	0dd
.	.	.	.	.	8f	.	.
.	.	.	.	.	8e	.	.
.	2d	.	.	.	4f	.	.
.	.	.	.	4c	4e	.	.
2r	1G	.	.	4B-	4d	1g	.
.	.	.	.	4A	4c	.	.
[2G	.	.	.	2G	2B-	.	.
=11	=11	=11	=11	=11	=11	=11	=11
2G]	2r	1r	0r	1D	1A	1a	1dd
2F	1d	.	.	.	.	.	.
2B-	.	2r	.	1r	1r	1r	1r
2A	2c	[2a	.	.	.	.	.
=12	=12	=12	=12	=12	=12	=12	=12
1F	1f	2a]	2r	0r	0r	0r	0r
.	.	2f	1dd	.	.	.	.
2G	1e	2b-	.	.	.	.	.
2A	.	[2a	2cc	.	.	.	.
=13	=13	=13	=13	=13	=13	=13	=13
1D	2.d	2a]	2.ff	0r	0r	0r	0r
.	.	2f	.	.	.	.	.
.	4c	.	4ee	.	.	.	.
1r	2B-	2g	2dd	.	.	.	.
.	2F	[2a	2cc	.	.	.	.
=14	=14	=14	=14	=14	=14	=14	=14
1r	1G	4a]	1b-	0r	0r	0r	0r
.	.	4g	.	.	.	.	.
.	.	1g	.	.	.	.	.
[1D	1d	.	2.a	.	.	.	.
.	.	4f	.	.	.	.	.
.	.	4e	4g	.	.	.	.
=15	=15	=15	=15	=15	=15	=15	=15
2D]	1d	4f	2a	0r	0r	0r	0r
.	.	4e	.	.	.	.	.
2BB-	.	4d	2.b-	.	.	.	.
.	.	4c	.	.	.	.	.
2E-	2G	2B-	.	.	.	.	.
.	.	.	4a	.	.	.	.
2E-	2G	2c	[2g	.	.	.	.
=16	=16	=16	=16	=16	=16	=16	=16
1D	1A	1d	2g]	2r	2r	2r	2r
.	.	.	2f#	2d	2d	2a	2dd
1G	1G	1d	1g	2B-	2d	2b-	2dd
.	.	.	.	2G	2g	2b-	2dd
=17	=17	=17	=17	=17	=17	=17	=17
1r	1r	1r	1r	2c	2g	2cc	2ee-
.	.	.	.	2d	2f#	2a	2dd
2r	2r	2r	2r	1G	1g	1b-	1dd
2G	2d	2g	2dd	.	.	.	.
=18	=18	=18	=18	=18	=18	=18	=18
2E-	2e-	2g	2cc	0r	0r	0r	0r
2C	2e-	2g	2.cc	.	.	.	.
2F	2f	2a	.	.	.	.	.
.	.	.	4a	.	.	.	.
2G	2d	4g	2b-	.	.	.	.
.	.	4f	.	.	.	.	.
=19	=19	=19	=19	=19	=19	=19	=19
2C	4c	4e-	1g	1r	1r	1r	1r
.	4B-	4f	.	.	.	.	.
2E-	4A	1g	.	.	.	.	.
.	4G	.	.	.	.	.	.
1D	1A	.	1dd	2r	2r	2r	2r
.	.	2f#	.	2d	2d	2a	2dd
=20	=20	=20	=20	=20	=20	=20	=20
1r	1G	1g	1r	2B-	2d	2b-	2dd
.	.	.	.	2G	2g	2b-	2dd
2r	2r	2r	2r	2c	2g	2cc	2ee-
2d	2d	2a	2dd	2d	2f#	2a	2dd
=21	=21	=21	=21	=21	=21	=21	=21
2B-	2d	2b-	2dd	1G	1g	1g	1dd
2G	1g	2b-	2dd	.	.	.	.
2c	.	2cc	2ee-	1r	1r	1r	1r
2d	2f	2a	4dd	.	.	.	.
.	.	.	4cc	.	.	.	.
=22	=22	=22	=22	=22	=22	=22	=22
2G	1d	1g	4b-	1r	1r	1r	0r
.	.	.	4g	.	.	.	.
2B-	.	.	1dd	.	.	.	.
1A	1e	[1a	.	2r	2r	2r	.
.	.	.	2cc#	2A	2e	[2a	.
=23	=23	=23	=23	=23	=23	=23	=23
1D	1d	1a]	1dd	2F	2.f	2a]	1a
.	.	.	.	2D	.	1f	.
.	.	.	.	.	4e	.	.
1r	1r	1r	1r	2F	4d	.	2a
.	.	.	.	.	4c	.	.
.	.	.	.	2G	2B-	2d	2b-
=24	=24	=24	=24	=24	=24	=24	=24
1r	1r	1r	1r	2C	2c	2e-	4a
.	.	.	.	.	.	.	4g
.	.	.	.	2E-	2G	2c	1g
2r	2r	2r	2r	1D	1A	[1d	.
2d	[2d	2a	[2dd	.	.	.	2f#
=25	=25	=25	=25	=25	=25	=25	=25
2B-	2d]	2b-	2dd]	2r	1G	1d]	2g
2G	2d	2b-	2b-	2G	.	.	1gg
1c	2.e	2cc	2g	2E	2r	1r	.
.	.	[2g	[2gg	2C	2c	.	2ee
.	4f	.	.	.	.	.	.
=26	=26	=26	=26	=26	=26	=26	=26
1B	2g	2g]	4gg]	1G	1d	1g	1dd
.	.	.	4ff	.	.	.	.
.	2G	2g	2dd	.	.	.	.
1c	2r	2g	2.ee	2C	2c	2e	[1gg
.	2c	2e	.	[2c	[2g	2c	.
.	.	.	4ff	.	.	.	.
=27	=27	=27	=27	=27	=27	=27	=27
1G	2d	0g	2.gg	2c]	4g]	0g	2gg]
.	.	.	.	.	4f	.	.
.	2d	.	.	2B	2d	.	1g
.	.	.	4ff	.	.	.	.
1C	1c	.	1ee	1c	2e	.	.
.	.	.	.	.	2c	.	2a
=28	=28	=28	=28	=28	=28	=28	=28
0G	0B	0g	0dd	0G	0d	0g	0b
=29	=29	=29	=29	=29	=29	=29	=29
0r	0r	1a	0r	0r	0r	0r	0r
.	.	2g	.	.	.	.	.
.	.	[2a	.	.	.	.	.
=30	=30	=30	=30	=30	=30	=30	=30
0r	1d	4a]	0r	0r	0r	0r	0r
.	.	4g	.	.	.	.	.
.	.	2f	.	.	.	.	.
.	2c	2e	.	.	.	.	.
.	[2d	2d	.	.	.	.	.
=31	=31	=31	=31	=31	=31	=31	=31
0r	4d]	2.f	1dd	0r	0r	0r	0r
.	4c	.	.	.	.	.	.
.	2B-	.	.	.	.	.	.
.	.	4g	.	.	.	.	.
.	2A	2a	2cc	.	.	.	.
.	2G	[2b-	[2dd	.	.	.	.
=32	=32	=32	=32	=32	=32	=32	=32
1r	2.B-	4b-]	4dd]	0r	0r	0r	0r
.	.	4a	4cc	.	.	.	.
.	.	1g	2b-	.	.	.	.
.	4c	.	.	.	.	.	.
2r	1d	.	[1a	.	.	.	.
2d	.	2f	.	.	.	.	.
=33	=33	=33	=33	=33	=33	=33	=33
2c	2A	2e	1a]	0r	0r	0r	0r
2.d	2.f	1a	.	.	.	.	.
.	.	.	1dd	.	.	.	.
4c	4e	.	.	.	.	.	.
2B-	2d	[2g	.	.	.	.	.
=34	=34	=34	=34	=34	=34	=34	=34
1A	2e	2g]	1cc	0r	0r	1r	1r
.	2c	2f#	.	.	.	.	.
1G	1d	1g	1b	.	.	2r	1dd
.	.	.	.	.	.	2g	.
=35	=35	=35	=35	=35	=35	=35	=35
0r	0r	0r	0r	1r	1r	2a	2cc
.	.	.	.	.	.	2.b-	2.dd
.	.	.	.	1G	1d	.	.
.	.	.	.	.	.	4a	4cc
.	.	.	.	.	.	2g	2b-
=36	=36	=36	=36	=36	=36	=36	=36
0r	0r	0r	0r	2A	2c	1f	2a
.	.	.	.	2.B-	2.d	.	2f
.	.	.	.	.	.	2d	1b-
.	.	.	.	4A	4c	.	.
.	.	.	.	2G	2B-	[2e-	.
=37	=37	=37	=37	=37	=37	=37	=37
0r	0r	0r	0r	2.F	1A	2e-]	2cc
.	.	.	.	.	.	2d	1dd
.	.	.	.	4D	.	.	.
.	.	.	.	1E-	2G	2.g	.
.	.	.	.	.	[2g	.	2cc
.	.	.	.	.	.	4a	.
=38	=38	=38	=38	=38	=38	=38	=38
0r	0r	0r	0r	2D	2g]	2b-	2dd
.	.	.	.	2d	2f	2.a	2dd
.	.	.	.	2c	2e	.	2ee
.	.	.	.	.	.	4g	.
.	.	.	.	[2d	2d	4f	[2ff
.	.	.	.	.	.	4e	.
=39	=39	=39	=39	=39	=39	=39	=39
0r	0r	0r	0r	4d]	2f	1d	4ff]
.	.	.	.	4c	.	.	4ee
.	.	.	.	2B-	2g	.	1dd
.	.	.	.	1A	2.a	1e	.
.	.	.	.	.	.	.	2cc#
.	.	.	.	.	4g	.	.
=40	=40	=40	=40	=40	=40	=40	=40
0r	0r	0r	0r	2D	4f	2a	1dd
.	.	.	.	.	4e	.	.
.	.	.	.	2G	2.d	2g	.
.	.	.	.	2F#	.	2a	2r
.	.	.	.	.	4c	.	.
.	.	.	.	2G	4B-	[2b-	2dd
.	.	.	.	.	4A	.	.
=41	=41	=41	=41	=41	=41	=41	=41
0r	1r	0r	0r	4G	1G	4b-]	2b-
.	.	.	.	4F	.	4a	.
.	.	.	.	2E-	.	1g	2cc
.	2r	.	.	1D	1A	.	2.dd
.	2d	.	.	.	.	2f#	.
.	.	.	.	.	.	.	4cc
=42	=42	=42	=42	=42	=42	=42	=42
2r	2e-	2r	2r	1G	1G	1g	2b-
2G	2.d	2g	2b-	.	.	.	2g
2F	.	2a	2a	1r	1r	1r	1r
.	4c	.	.	.	.	.	.
[2G	4B-	[2b-	2g	.	.	.	.
.	4A	.	.	.	.	.	.
=43	=43	=43	=43	=43	=43	=43	=43
4G]	2G	4b-]	2b-	0r	0r	0r	0r
4F	.	4a	.	.	.	.	.
2E	1c	2g	2cc	.	.	.	.
1D	.	2.f	2dd	.	.	.	.
.	2B	.	[2ff	.	.	.	.
.	.	4g	.	.	.	.	.
=44	=44	=44	=44	=44	=44	=44	=44
2C	4c	2a	2ff]	0r	0r	0r	0r
.	4d	.	.	.	.	.	.
2c	4e	2.g	2ee	.	.	.	.
.	4f	.	.	.	.	.	.
2B	1g	.	2dd	.	.	.	.
.	.	4f	.	.	.	.	.
[2c	.	4e	4gg	.	.	.	.
.	.	4d	4ff	.	.	.	.
=45	=45	=45	=45	=45	=45	=45	=45
4c]	1c	2e	4ee	0r	0r	0r	0r
4B-	.	.	4dd	.	.	.	.
2A	.	2f	1cc	.	.	.	.
1G	2r	2e	.	.	.	.	.
.	2g	[2d	2b-	.	.	.	.
=46	=46	=46	=46	=46	=46	=46	=46
0r	2f	4d]	2a	0r	0r	0r	0r
.	.	4c	.	.	.	.	.
.	2.g	4B-	4dd	.	.	.	.
.	.	4A	4cc	.	.	.	.
.	.	2G	4b-	.	.	.	.
.	4f	.	4a	.	.	.	.
.	2e	[2g	2g	.	.	.	.
=47	=47	=47	=47	=47	=47	=47	=47
1D	1.d	2g]	2a	1r	2r	1r	1r
.	.	2f#	2a	.	1d	.	.
1G	.	2g	2b-	1G	.	1g	1dd
.	2B-	2d	2dd	.	[2g	.	.
=48	=48	=48	=48	=48	=48	=48	=48
1C	2c	2r	2.cc	1c	2g]	1e	2ee
.	1c	2g	.	.	1c	.	2gg
.	.	.	4b-	.	.	.	.
1F	.	2a	4a	1F	.	2a	2.ff
.	.	.	4g	.	.	.	.
.	2A	2cc	2a	.	[2f	2a	.
.	.	.	.	.	.	.	4ee
=49	=49	=49	=49	=49	=49	=49	=49
1BB-	4B-	2b-	1dd	1B-	4f]	0f	4dd
.	4c	.	.	.	4e	.	4cc
.	4d	2.f	.	.	2d	.	1b-
.	4e	.	.	.	.	.	.
1r	1f	.	2r	1F	1c	.	.
.	.	4g	.	.	.	.	.
.	.	2a	2cc	.	.	.	2a
=50	=50	=50	=50	=50	=50	=50	=50
1BB-	2f	1d	2dd	1r	2B-	2r	2b-
.	2F	.	2dd	.	2d	2b-	1f
1F	2A	2r	1ff	1F	2.c	1a	.
.	2A	2f	.	.	.	.	[2cc
.	.	.	.	.	4d	.	.
=51	=51	=51	=51	=51	=51	=51	=51
1C	1c	2g	1ee	1c	4e	2g	2cc]
.	.	.	.	.	4f	.	.
.	.	2g	.	.	4g	2e	1g
.	.	.	.	.	4c	.	.
1G	2.B-	1b-	1dd	1G	2.d	1g	.
.	.	.	.	.	.	.	[2dd
.	4c	.	.	.	4e	.	.
=52	=52	=52	=52	=52	=52	=52	=52
1D	1d	1.a	2.dd	1d	4f	2.f	4dd]
.	.	.	.	.	4g	.	4ee
.	.	.	.	.	2a	.	2ff
.	.	.	4ee	.	.	4g	.
1d	2r	.	1ff	1D	1f	1a	[1dd
.	2d	2f	.	.	.	.	.
=53	=53	=53	=53	=53	=53	=53	=53
2.B-	2.d	0b-	0dd	2.G	1g	1d	2dd]
.	.	.	.	.	.	.	2.b-
4A	4c	.	.	4A	.	.	.
1G	2B-	.	.	2.B-	1d	1g	.
.	.	.	.	.	.	.	4cc
.	2G	.	.	.	.	.	[2dd
.	.	.	.	4c	.	.	.
=54	=54	=54	=54	=54	=54	=54	=54
[0D	[0A	1.a	[0dd	1d	[0d	[0f#	2dd]
.	.	.	.	.	.	.	4cc
.	.	.	.	.	.	.	4b-
.	.	.	.	1D	.	.	1a
.	.	2f#	.	.	.	.	.
=55	=55	=55	=55	=55	=55	=55	=55
0D]	0A]	0f#	0dd]	0D	0d]	0f#]	0a
==	==	==	==	==	==	==	==
*-	*-	*-	*-	*-	*-	*-	*-
!!!CDT: 1525/^1526/-1594/2/2
!!!OCY: Italia
!!!AGN: Mass (Parody)
!!!AST: renaissance, vocal
!!!ASW: Motet (Palestrina)
!!!PWK: Masses, Book 8vce
!!!RNB: Cadence finals: D
!!!YOR: Le Opere Complete, v. 30, p. 110
!!!YOO: Rome, Italy: Fratelli Scalera
!!!END: 1992//
!!!EED: John Miller
!!!YEC: Copyright 2000, John Miller
!!!YEN: United States of America
!!!YEM: Rights to all derivative electronic formats reserved.
!!!YEM: Refer to licensing agreement for further details.
!!!YEM: This file must be accompanied by the licensing agreement.
!!!YEM: A copy of the licensing agreement may be found at http://www.music-cog.ohio-state.edu/HumdrumDatabases/Palestrina/license.txt
!!!EMD: converted to Humdrum by Bret Aarden
